X:2115
L:1/8
M:4/4
K:C
 .abc ||[M:4/4][K:Ador] (3:2:2Med | c2 (Ac) B2 (GB) | AGEF GEDF | EAAB cBcd | eaaf gfed | 
 cBAc BAGB | AGEF GEDF | EAAB cded | cABG A2 z2 || (ea)ab ageg | agbg agef |{a} gfga gfef | 
 geaf gfed | (ea)ab ageg | agbg agef | Mg2 ge Ma2 af | b2 ba gfed |]

